X:1
T:Roll the Stone Away
T:Roll the Stone Away
T:Charles Howard Marsh
T:Ora Samuel Gray, 1908
T:Public Domain Courtesy of the Cyber Hymnal™
T:Public Domain Courtesy of the Cyber Hymnal™
C:Charles Howard Marsh
Z:Public Domain
Z:Courtesy of the Cyber Hymnal™
%%score ( 1 2 ) ( 3 4 )
L:1/8
Q:1/4=95
M:6/8
K:F
V:1 treble 
V:2 treble 
V:3 bass 
V:4 bass 
V:1
 AAA B>BE | F2 A c3 [EB]2 | AAA BBE | F2 c3 [EB]2 | cdc cGA | BAE (GF)D | GAG GAG | %7
w: 1.~Je- sus was stand- ing be-|side a grave, Weep-|* ing, but know- ing His|power to save;|* “Take ye a- way now|the stone from the * door,”|And Christ will His pow- er|
w: 2.~Je- sus is speak- ing to|you in song, Ask-|* ing why you have de-|layed so long?|* While men are ly- ing|in grave- clothes of * sin,|For whom Je- sus died on|
w: 3.~Je- sus is stand- ing by|hearts of sin, Knock-|* ing and say- ing, “Let|Me come in.”|* Rouse, then, ye sleep- er,|and o- pen the * door,|For Je- sus has pow- er|
 (z [EG][FA] [GBc]2) ||"^Refrain" [Ec] | [Ee]2 [Ed] [EG]2 [EA] | [EB]3- [EB]2 [EB] | %11
w: ||dis- play. * *||
w: ||the cross. They rolled|the * stone|
w: ||to save. * *||
 [Fd]2 [Fc] F2 [FG] | [FA]3- [FA]2 [FA] | [FA]2 [FG] [FG]2 [FA] | [F=B]2 [FA] [FG]2 [Fd] | %15
w: ||||
w: a- way, For Christ|was * there|that day, And called|up- on a man|
w: ||||
 [Ec]3 [^Dc]3 | [Ec]3- [Ec]2 [Ec] | [Ee]2 [Ed] [EG]2 [EA] | [EB]3- [EB]2 [EB] | %19
w: ||||
w: to leave|the * dark-|ened grave. We’ll roll|the * stone|
w: ||||
 [Fd]2 [Fc] F2 [FG] | [FA]3- [FA]2 [_EA] | [DA]2 [DG] !fermata![Dd]2 [_DG] | %22
w: |||
w: a- way, For He|is * here|to- day, And waits|
w: |||
 [CG]2 [CF] !fermata![Cc]2"^riten." [Fd] | [Ed]3 [CEe]3 | [CFf]6 |] %25
w: |||
w: to show His might-|y power,|His|
w: |||
V:2
 [DF]3 [CE]3 | [DF]3 [^DA] x4 | [CF]3 [CE]3 | [DF]3 A[^DA] x2 | [FA]3 [B,E]3 | [^CE]3 [B,D]3 | %6
 [=B,F]3 [B,D]3 | c3- x2 || x | x6 | x6 | x3 F2 x | x6 | x6 | x6 | x6 | x6 | x6 | x6 | x3 F2 x | %20
 x6 | x6 | x6 | x6 | x6 |] %25
V:3
 [F,,F,]3 [G,,G,]3 | [A,,A,]3 ([^F,,^F,][G,,G,][C,,C,]) x2 | [F,,F,]3 [G,,G,]3 | %3
 [A,,A,]3 ([^F,,^F,][G,,G,][C,,C,]) x | [F,,F,]3 [G,,G,]3 | [A,,A,]3 [B,,B,]3 | %6
 [D,,D,]3 [G,,,G,,]3 | [C,,C,]3- [C,,C,]2 || [C,G,] | [C,G,]2 [C,G,] [C,C]2 [C,C] | %10
 [C,C]3- [C,C]2 [C,C] | [F,B,]2 [F,A,] [F,A,]2 [F,B,] | [F,C]3- [F,C]2 [F,C] | %13
 [G,C]2 [G,=B,] [G,B,]2 [G,C] | [G,D]2 [G,C] [G,=B,]2 [G,B,] | [C,G,]3 [C,^F,]3 | %16
 [C,G,]3- [C,G,]2 [C,G,] | [C,G,]2 [C,G,] [C,C]2 [C,C] | [C,C]3- [C,C]2 [C,C] | %19
 [F,B,]2 [F,A,] [F,A,]2 [F,B,] | [F,C]3- [F,C]2 F, | [B,,F,]2 [B,,F,] !fermata![B,,F,]2 [B,,F,] | %22
 [A,,F,]2 [A,,F,] [A,,F,]2 [B,,F,] | [C,B,]3 [C,B,]3 | [F,A,]6 |] %25
V:4
 x6 | x8 | x6 | x7 | x6 | x6 | x6 | x5 || x | x6 | x6 | x6 | x6 | x6 | x6 | x6 | x6 | x6 | x6 | %19
 x6 | x5 F, | x6 | x6 | x6 | x6 |] %25

